!!!ONB: MCCC : IJH0417_04 : Extracted Monophonic Melody
!!!COM: Haydn, Joseph
!!!OPR: String Quartet in C major
!!!OMV: 4
!!!SCT: Hob.III:32 ; Op.20 No.2
!!!ODT: 1772///
**kern
*thru
*k[]
*C:
*clefG
*M6/8
8g
8g
8gg
8ff#
8ff
=1
8ee
8cc
8b
4a
8dd
=2
4g
8cc
8f
8ff
8ff
=3
8ff
16gg
16ff
16ee
16dd
8ee
16e
16f
16e
16d
=4
4c
2r
=5
8r
8cc
4cc
16dd
16cc
8b[
=6
8b]
8a
8g
4.f#
=7
4g
8r
8g
8a
8b
=8
8cc
8dd
8ee
8ff
8dd
8cc
=9
4b
8cc
4.a
=10
4g
2r
=11
16e
16c
16f
16c
16g
16c
4a
8r
=12
2r
8A
8B
=13
8c
8f#
8g
4a
8r
=14
8r
8g
8g
8gg
8ff#
8ff
=15
8ee
8cc
8b
4a
8dd
=16
4g
8cc
8f
8ff
8ff
=17
8ff
16gg
16ff
16ee
16dd
8ee
8gg
8ccc[
=18
8ccc]
4.bb
4aa[
=19
8aa]
4.gg
4ff[
=20
8ff]
8ee
8ee
4.dd
=21
4.cc
4.b
=22
4a
2r
=23
2.r
=24
2.r
=25
2.r
=26
2.r
=27
2.r
=28
8a
16aa
16gg
16ff
16ee
4.ff[
=29
8ff]
16gg
16ff
16ee
16dd
8ee
8dd
8r
=30
8r
8g
8g
8gg
8ff#
8ff
=31
4ee
8r
8cc
8dd
8ee
=32
4ff
2r
=33
8r
8f
8f
8ff
8ee
8ee-
=34
4dd
8ff#
8gg
8ff#
8ff
=35
4ee
8gg#
8aa
8gg#
8gg
=36
4ff
2r
=37
2.r
=38
2.r
=39
2.r
=40
8r
8a
8a
8aa
8gg#
8gg
=41
4ff
8dd
16cc#
16a
16dd
16a
16ee
16a
=42
4ff
2r
=43
8r
8e
8f
8g
8cc#
8dd
=44
4.ee
4.ff
=45
4.ff#
8gg
8aa
8bb-
=46
8aa
8ddd
4ddd
16aa
16bb-
8ccc[
=47
8ccc]
16bb-
16aa
4bb-
16aa
16gg
8aa
=48
4gg
2r
=49
8r
8f
8f
8ff
8ee
8ee-
=50
4dd
2r
=51
8r
8g
8g
8gg
8ff#
8ff
=52
4ee
2r
=53
8r
8a
8a
8aa
8gg#
8gg
=54
8ff
8ee
8gg
8ff
8dd
8g#
=55
4a
2r
=56
8r
8dd
8dd
8ddd
8ccc#
8ccc
=57
4bb
8r
16b
16g
16cc
16g
16dd
16g
=58
8ee
8cc
8cc
8ccc
8bb
8bb-
=59
4aa
2r
=60
2.r
=61
2.r
=62
2.r
=63
8r
8b
8b
8bb
8aa#
8aa
=64
8gg
8ee
8dd
4cc
8ff#
=65
4b
8ee
8a
8aa
8aa
=66
8aa
16bb
16aa
16gg
16ff#
8gg
16g
16a
16g
16f#
=67
8e
8f#
8g#
8a
8b
8cc
=68
4.b
4.a
=69
4.g
4f#
8g
=70
16f#
16d
16g
16d
16a
16d
4b
8r
=71
2r
8dd
8dd
=72
8ddd
8ccc#
8ccc
8bb
8gg
8ff#
=73
4ee
8aa
4dd
8gg
=74
8cc
8ccc
8ccc
8ccc
16ddd
16ccc
16bb
16aa
=75
4bb
8eee
4aa
8ddd
=76
4gg
8ccc
4ff#
8bb
=77
4ee
8aa
4.dd
=78
4ee
8a
4dd
8gg
=79
4cc
8ff
4b
8cc
=80
8b
8B
8B
8B
8c
8d
=81
4e
2r
=82
8r
8c
8c
8cc
8b
8b-
=83
8a
8dd
8cc#
8cc
8b
8ee
=84
8dd#
8dd
8cc
8ff
8ee
8ee-
=85
8dd
8gg
8ff#
8ff
8ee
8aa
=86
8gg#
8gg
8ff
4.bb-[
=87
8bb-]
8aa
8gg#
4.aa[
=88
8aa]
8bb-
8ff#
4.gg[
=89
8gg]
8aa
8ee
4.ff[
=90
8ff]
8ee
8dd
4.ee
=91
8ff
8cc
8cc
8ccc
8bb
8bb-
=92
8aa
8ff
8ee
4dd
8gg
=93
4cc
8ff
8b-
8bb-
8bb-
=94
8bb-
16ccc
16bb-
16aa
16gg
8aa
16a
16b-
16a
16g
=95
16a
16f
16b-
16f
16cc
16f
4dd
8r
=96
8r
8f
4f
16g
16f
8e[
=97
8e]
8d
8c
4.B
=98
4c
2r
=99
2r
8a
8a
=100
8aa
8gg#
8gg
4.ff[
=101
2ff]
8ddd
8ddd
=102
8dd
8ee-
8ee
8ff
8gg
8aa
=103
4bb-
8ee
4aa
8dd
=104
8gg
8g
4g
16a
16g
8f
=105
2.r
=106
8r
8gg
8gg
8g
8a-
8a
=107
8b-
8gg
8gg
8g
8a-
8a
=108
8b-
8gg
8gg
8g
8a-
8a
=109
8b-
8gg
8gg
8gg
8ee
8b-
=110
8a
8ff
8a
8g
8ee
8g
=111
8f
8dd
8f
8e
8cc
8e
=112
8d
8a
8a
8a
8A
8c
=113
8B
8g
8g
8gg
8ff#
8ff
=114
4ee
8aa
4dd
8gg
=115
8cc
16ff
16ee
8ff
4b
8ee
=116
4a
8dd
8g
16cc
16b
8cc
=117
2.f#
=118
4g
2r
=119
2.r
=120
2.r
=121
2.r
=122
2.r
=123
8r
8gg
8gg
8g
8a-
8a
=124
4.b-
4.b
=125
8cc
8aa
8aa
8a
8b-
8b
=126
4.cc
4.cc#
=127
8dd
8cc#
8cc
4.b
=128
8cc
8dd
8ee
16ff
16gg
16aa
16gg
16ff
16ee
=129
8dd
8ee
8ff#
16gg
16aa
16bb
16aa
16gg
16ff#
=130
8ee
8ff#
8gg#
16aa
16bb
16ccc
16bb
16aa
16gg
=131
8ff
8f
8f
16dd
16ee
16ff
16ee
16dd
16cc
=132
8b
8B
8B
16ddd
16ccc
16bb
16aa
16gg
16ff
=133
8ee
8e
8e
16cc
16dd
16ee
16dd
16cc
16b
=134
8a
8A
8A
16ccc
16bb
16aa
16gg
16ff
16ee
=135
8dd
8d
8d
16b
16cc
16dd
16cc
16b
16a
=136
8g
8G
8G
16bb
16aa
16gg
16ff
16ee
16dd
=137
8cc
8c
8c
16a
16b
16cc
16b
16a
16g
=138
8f
8ff
8ff
16aa
16gg
16ff
16ee
16dd
16cc
=139
16b
16cc
16dd
16cc
16b
16a
16g
16a
16b
16a
16g
16f
=140
4e
8r
16cc
16dd
16ee
16dd
16cc
16b
=141
4a
8r
16dd
16ee
16ff
16ee
16dd
16cc
=142
4b
8r
16ee
16ff
16gg
16ff
16ee
16dd
=143
4cc
8r
16ff
16gg
16aa
16gg
16ff
16ee
=144
16dd
16ee
16ff
16ee
16dd
16cc
16b
16cc
16dd
16cc
16b
16a
=145
8g
8gg
8gg
8g
8a-
8a
=146
4.b-
4.b
=147
8cc
8ccc
8ccc
8cc
8dd-
8dd
=148
4.ee-
4.ee
=149
4.ff
4.ff#
=150
8gg
16b
16cc
16b
16a
4g
8r
=151
2r
8ff
8ff[
=152
8ff]
16gg
16ff
4ee
8dd
8cc
=153
4b
8cc
8f
8f
8f[
=154
8f]
16g
16f
8e
8d
8f
8B
=155
8c
8cc
8cc
8c
8d-
8d
=156
8e-
8cc
8cc
8d
8e-
8e
=157
8f
8cc
8cc
8e
8f
8f#
=158
8g
16a
16g
16a
16b
8cc
16dd
16cc
16dd
16ee
=159
8ff
8dd
8b
8cc
8a
8e
=160
4f
8r
4b
8r
=161
4cc
2r
==
*-
